X:198
T:Polska efter Pelle Fors
R:sl\"angpolska
H:efter Anselm och Allan Hellstr\"om
A:\"Osterg\"otland
Z:id:hn-sp-198
M:3/4
L:1/16
K:Dm
A2 |: d3^c e2c2 c2A2 | ABAG A4 E4 | FGFE D^CDE FGFD |
E2^C2 A,CEC E2D2 | D2d2 d2^c2 e2c2 | ^c2A2 ABAG A2AE |
FGFE D^CDE FGFE |1 ^C4 D6 (3A=B^c :|2 ^C4 D8 |: A2a2 =baga bage |
c2eg agfg agfe | A2a2 =baga bage | c2eg agfg agfe |
f2ef d2ef gfed |1 ^cdec d8 :|2 ^cdec d6 ||
% sista takten i f\"orsta delen \"aven ^C2EC C2D2 D4
<end>
<start>
